X:315
T:Standing Stones, The 
C:Joe Buchanan's Scottish Tome - Page 008.3
I:008 3
C:Jim Johnstone
R:March
Z:Carl Allison
L:1/8
M:4/4
K:A
E2 | A>GAB c2 BA | d>cde fagf | e2 A>c ecae | c2 B2 B2 E2 |
| A>GAB c2 BA | d>cde fagf | e2 A>c fdBG | A2 A2 B A2 |]
c>d | e2 c>d e2 ag | f>dAd f2 ed | c2 A>c ecae | c2 B2 B2 E2 |
|A>GAB c2 BA | d>cde fagf | e2 A>c fdBG | A2 A2 B A2 |]

